Newaita-dark/apps/64/git.svg

<svg height="64" viewBox="0 0 64 64" width="64" xmlns="http://www.w3.org/2000/svg" xmlns:xlink="http://www.w3.org/1999/xlink"><linearGradient id="a"><stop offset="0" stop-opacity=".313726"/><stop offset=".222222" stop-opacity=".27451"/><stop offset="1" stop-opacity="0"/></linearGradient><radialGradient id="b" cx="450.908936" cy="189.579361" gradientTransform="matrix(.00000035 -.156265 -.281277 -.0000002 84.415649 127.190665)" gradientUnits="userSpaceOnUse" r="21.166656" xlink:href="#a"/><radialGradient id="c" cx="450.908936" cy="189.579361" gradientTransform="matrix(-.00000035 .156265 .281277 .0000002 -20.909582 -15.054958)" gradientUnits="userSpaceOnUse" r="21.166656" xlink:href="#a"/><radialGradient id="d" cx="450.908936" cy="189.579361" gradientTransform="matrix(-.00000035 -.156265 .281277 -.0000002 -20.909582 127.190665)" gradientUnits="userSpaceOnUse" r="21.166656" xlink:href="#a"/><radialGradient id="e" cx="450.908936" cy="189.579361" gradientTransform="matrix(.00000035 .156265 -.281277 .0000002 84.415646 -15.054959)" gradientUnits="userSpaceOnUse" r="21.166656" xlink:href="#a"/><linearGradient id="f" gradientTransform="matrix(.0883968 -.0883968 .0883968 .0883968 7.370254 51.358798)" gradientUnits="userSpaceOnUse" x1="111.280739" x2="395.655518" y1="164.552521" y2="-119.822243"><stop offset="0" stop-color="#e53935"/><stop offset="1" stop-color="#f44336"/></linearGradient><linearGradient id="g" gradientTransform="matrix(.0883968 -.0883968 .0883968 .0883968 5.95414 40.310092)" gradientUnits="userSpaceOnUse" x1="109.180611" x2="281.302185" y1="182.672668" y2="10.551097"><stop offset="0" stop-color="#e0e0e0"/><stop offset="1" stop-color="#eee"/></linearGradient><path d="m31.753906 56.066406h5.292969v-2.644531h-5.292969zm0 0" fill="url(#b)"/><path d="m31.753906 56.066406h-5.292968v2.648438h5.292968zm0 0" fill="url(#c)"/><path d="m31.753906 56.066406h-5.292968v-2.644531h5.292968zm0 0" fill="url(#d)"/><path d="m31.753906 56.066406h5.292969v2.648438h-5.292969zm0 0" fill="url(#e)"/><path d="m7.429688 28.964844 22.453124-22.453125c1.03125-1.03125 2.707032-1.03125 3.742188 0l22.453125 22.453125c1.03125 1.035156 1.03125 2.707031 0 3.742187l-22.453125 22.453125c-1.035156 1.03125-2.710938 1.03125-3.742188 0l-22.453124-22.453125c-1.035157-1.035156-1.035157-2.707031 0-3.742187zm0 0" fill="url(#f)"/><path d="m34.546875 18.382812c-1.25-1.25-3.117187-1.492187-4.609375-.730468l-.136719-.136719c-.515625-.519531-1.351562-.519531-1.871093 0-.515626.519531-.515626 1.351563 0 1.871094l.183593.183593c-.652343 1.457032-.382812 3.226563.820313 4.425782.4375.4375.953125.753906 1.496094.945312v13.125c-.570313.1875-1.105469.511719-1.5625.964844-1.554688 1.554688-1.554688 4.058594 0 5.613281 1.554687 1.554688 4.058593 1.554688 5.613281 0 1.554687-1.554687 1.554687-4.058593 0-5.613281-.414063-.410156-.890625-.714844-1.402344-.910156v-13.191406c.09375-.035157.191406-.070313.285156-.113282l5.042969 5.042969c-.65625 1.460937-.382812 3.226563.816406 4.429687 1.558594 1.554688 4.058594 1.554688 5.613282 0 1.554687-1.554687 1.554687-4.058593 0-5.613281-1.25-1.253906-3.113282-1.496093-4.605469-.734375l-4.949219-4.949218c.761719-1.492188.515625-3.355469-.734375-4.609376zm0 0" fill="url(#g)"/><path d="m27.605469 18.851562c-.140625.445313-.042969.945313.300781 1.308594.050781-.203125.121094-.398437.207031-.589844l-.179687-.183593c-.15625-.15625-.265625-.339844-.328125-.535157zm8.085937 2.738282c-.046875.484375-.183594.960937-.410156 1.402344l.234375.234374c.171875-.527343.230469-1.085937.175781-1.636718zm-7.902344.003906c-.117187 1.144531.265626 2.328125 1.144532 3.207031.4375.4375.953125.75 1.496094.941407v-.800782c-.542969-.191406-1.058594-.507812-1.496094-.945312-.675782-.671875-1.054688-1.523438-1.144532-2.402344zm5.574219 3.222656c-.09375.042969-.191406.078125-.285156.113282v.804687c.09375-.035156.191406-.074219.285156-.117187l4.832031 4.835937c.054688-.203125.125-.402344.210938-.59375zm12.621094 7.066406c-.089844.875-.472656 1.730469-1.148437 2.40625-1.554688 1.554688-4.054688 1.554688-5.613282 0-.671875-.675781-1.054687-1.527343-1.144531-2.402343-.113281 1.140625.265625 2.324219 1.144531 3.203125 1.558594 1.554687 4.058594 1.554687 5.613282 0 .882812-.878906 1.261718-2.0625 1.148437-3.207032zm-18.261719 10.355469c-.117187 1.144531.265625 2.328125 1.144532 3.210938 1.554687 1.554687 4.058593 1.554687 5.613281 0 .878906-.882813 1.261719-2.066407 1.144531-3.210938-.089844.878907-.46875 1.730469-1.144531 2.40625-1.554688 1.554688-4.058594 1.554688-5.613281 0-.675782-.675781-1.054688-1.527343-1.144532-2.40625zm0 0" fill-opacity=".235294"/><path d="m28.867188 17.125c-.339844 0-.675782.128906-.933594.390625-.351563.351563-.464844.84375-.34375 1.289063.0625-.210938.175781-.414063.34375-.578126.515625-.519531 1.351562-.519531 1.867187 0l.136719.132813c1.492188-.761719 3.359375-.515625 4.609375.734375.6875.6875 1.070313 1.558594 1.148437 2.453125.101563-1.128906-.28125-2.292969-1.148437-3.164063-1.25-1.25-3.117187-1.492187-4.609375-.730468l-.136719-.136719c-.257812-.261719-.59375-.390625-.933593-.390625zm-.941407 2.964844c-.136719.472656-.183593.964844-.140625 1.453125.039063-.433594.148438-.859375.328125-1.265625l-.179687-.179688c-.003906-.003906-.007813-.007812-.007813-.007812zm7.566407 3.113281c-.058594.171875-.128907.335937-.210938.5l4.949219 4.949219c1.492187-.761719 3.355469-.519532 4.605469.730468.6875.6875 1.070312 1.558594 1.152343 2.453126.101563-1.128907-.28125-2.292969-1.152343-3.160157-1.25-1.253906-3.113282-1.496093-4.605469-.734375zm2.722656 7.175781c-.136719.476563-.183594.96875-.140625 1.457032.039062-.433594.148437-.863282.332031-1.265626zm-7.785156 7.6875c-.570313.1875-1.105469.511719-1.5625.964844-.867188.867188-1.25 2.03125-1.148438 3.164062.078125-.894531.460938-1.765624 1.148438-2.453124.457031-.457032.992187-.777344 1.5625-.964844zm2.648437.054688v.710937c.511719.195313.988281.496094 1.402344.910157.6875.6875 1.070312 1.558593 1.148437 2.453124.101563-1.132812-.28125-2.296874-1.148437-3.164062-.414063-.410156-.890625-.714844-1.402344-.910156zm0 0" fill="#fff"/><path d="m31.753906 5.734375c-.675781 0-1.355468.257813-1.871094.777344l-22.453124 22.453125c-.625.625-.871094 1.476562-.746094 2.28125.085937-.535156.332031-1.046875.746094-1.460938l22.453124-22.453125c1.035157-1.035156 2.703126-1.035156 3.742188 0l22.453125 22.453125c.410156.414063.660156.925782.742187 1.460938.128907-.804688-.121093-1.65625-.742187-2.28125l-22.453125-22.453125c-.519531-.519531-1.195312-.777344-1.871094-.777344zm0 0" fill="#fff" fill-opacity=".392157"/><path d="m31.753906 55.9375c-.675781 0-1.355468-.261719-1.871094-.78125l-22.453124-22.449219c-.625-.625-.871094-1.476562-.746094-2.28125.085937.53125.332031 1.046875.746094 1.460938l22.453124 22.449219c1.035157 1.039062 2.703126 1.039062 3.742188 0l22.453125-22.449219c.410156-.414063.660156-.929688.742187-1.460938.128907.804688-.121093 1.65625-.742187 2.28125l-22.453125 22.449219c-.519531.519531-1.195312.78125-1.871094.78125zm0 0" fill-opacity=".235294"/><path d="m7.296875 28.832031c-1.109375 1.109375-1.109375 2.898438 0 4.007813l22.453125 22.453125c1.105469 1.105469 2.898438 1.105469 4.007812 0l22.453126-22.453125c1.105468-1.109375 1.105468-2.898438 0-4.007813l-22.453126-22.453125c-1.109374-1.105468-2.902343-1.105468-4.007812 0zm.265625.265625 22.453125-22.453125c.964844-.964843 2.511719-.964843 3.476563 0l22.453124 22.453125c.964844.964844.964844 2.511719 0 3.476563l-22.453124 22.453125c-.964844.964844-2.511719.964844-3.476563 0l-22.453125-22.453125c-.964844-.964844-.964844-2.511719 0-3.476563zm0 0" fill="#212121"/><path d="m276.34861-67.951542c-9.999045-9.999046-24.935119-11.936361-36.871479-5.843192l-1.093645-1.093646c-4.124607-4.155853-10.811468-4.155853-14.967321 0-4.124606 4.155853-4.124606 10.811468 0 14.967321l1.46861 1.468609c-5.218252 11.655137-3.062208 25.810036 6.561873 35.40287 3.499666 3.499665 7.624272 6.030674 11.967607 7.561778v104.989973c-4.562064 1.499857-8.842905 4.09336-12.498806 7.718013-12.436313 12.436313-12.436313 32.46565 0 44.901963 12.436312 12.436312 32.465649 12.436312 44.901962 0 12.436312-12.436313 12.436312-32.46565 0-44.901963-3.312184-3.280936-7.12432-5.718203-11.217679-7.280554v-105.521174c.749928-.281223 1.531104-.562446 2.281032-.906163l40.339898 40.339898c-5.249499 11.686384-3.062208 25.810035 6.530626 35.434116 12.46756 12.436312 32.46565 12.436312 44.901962 0 12.436313-12.436312 12.436313-32.46565 0-44.901962-9.999045-10.030292-24.903871-11.967607-36.840232-5.874439l-39.589969-39.589969c6.093168-11.936361 4.124606-26.841187-5.874439-36.871479zm0 0" fill="none" stroke="#212121" stroke-linecap="round" stroke-width="3" transform="matrix(.125012 0 0 .125012 0 26.877566)"/></svg>

<?xml version="1.0" encoding="UTF-8"?>
<svg xmlns="http://www.w3.org/2000/svg" xmlns:xlink="http://www.w3.org/1999/xlink" width="64px" height="64px" viewBox="0 0 64 64" version="1.1">
<defs>
<radialGradient id="radial0" gradientUnits="userSpaceOnUse" cx="450.908936" cy="189.579361" fx="450.908936" fy="189.579361" r="21.166656" gradientTransform="matrix(0.000000348341,-0.156265,-0.281277,-0.000000203077,84.415649,127.190665)">
<stop offset="0" style="stop-color:rgb(0%,0%,0%);stop-opacity:0.313726;"/>
<stop offset="0.222222" style="stop-color:rgb(0%,0%,0%);stop-opacity:0.27451;"/>
<stop offset="1" style="stop-color:rgb(0%,0%,0%);stop-opacity:0;"/>
</radialGradient>
<radialGradient id="radial1" gradientUnits="userSpaceOnUse" cx="450.908936" cy="189.579361" fx="450.908936" fy="189.579361" r="21.166656" gradientTransform="matrix(-0.000000348341,0.156265,0.281277,0.000000203077,-20.909582,-15.054958)">
<stop offset="0" style="stop-color:rgb(0%,0%,0%);stop-opacity:0.313726;"/>
<stop offset="0.222222" style="stop-color:rgb(0%,0%,0%);stop-opacity:0.27451;"/>
<stop offset="1" style="stop-color:rgb(0%,0%,0%);stop-opacity:0;"/>
</radialGradient>
<radialGradient id="radial2" gradientUnits="userSpaceOnUse" cx="450.908936" cy="189.579361" fx="450.908936" fy="189.579361" r="21.166656" gradientTransform="matrix(-0.000000348341,-0.156265,0.281277,-0.000000203077,-20.909582,127.190665)">
<stop offset="0" style="stop-color:rgb(0%,0%,0%);stop-opacity:0.313726;"/>
<stop offset="0.222222" style="stop-color:rgb(0%,0%,0%);stop-opacity:0.27451;"/>
<stop offset="1" style="stop-color:rgb(0%,0%,0%);stop-opacity:0;"/>
</radialGradient>
<radialGradient id="radial3" gradientUnits="userSpaceOnUse" cx="450.908936" cy="189.579361" fx="450.908936" fy="189.579361" r="21.166656" gradientTransform="matrix(0.000000348341,0.156265,-0.281277,0.000000203077,84.415646,-15.054959)">
<stop offset="0" style="stop-color:rgb(0%,0%,0%);stop-opacity:0.313726;"/>
<stop offset="0.222222" style="stop-color:rgb(0%,0%,0%);stop-opacity:0.27451;"/>
<stop offset="1" style="stop-color:rgb(0%,0%,0%);stop-opacity:0;"/>
</radialGradient>
<linearGradient id="linear0" gradientUnits="userSpaceOnUse" x1="111.280739" y1="164.552521" x2="395.655518" y2="-119.822243" gradientTransform="matrix(0.0883968,-0.0883968,0.0883968,0.0883968,7.370254,51.358798)">
<stop offset="0" style="stop-color:rgb(89.803922%,22.352941%,20.784314%);stop-opacity:1;"/>
<stop offset="1" style="stop-color:rgb(95.686275%,26.274511%,21.176471%);stop-opacity:1;"/>
</linearGradient>
<linearGradient id="linear1" gradientUnits="userSpaceOnUse" x1="109.180611" y1="182.672668" x2="281.302185" y2="10.551097" gradientTransform="matrix(0.0883968,-0.0883968,0.0883968,0.0883968,5.95414,40.310092)">
<stop offset="0" style="stop-color:rgb(87.843138%,87.843138%,87.843138%);stop-opacity:1;"/>
<stop offset="1" style="stop-color:rgb(93.333334%,93.333334%,93.333334%);stop-opacity:1;"/>
</linearGradient>
</defs>
<g id="surface1">
<path style=" stroke:none;fill-rule:nonzero;fill:url(#radial0);" d="M 31.753906 56.066406 L 37.046875 56.066406 L 37.046875 53.421875 L 31.753906 53.421875 Z M 31.753906 56.066406 "/>
<path style=" stroke:none;fill-rule:nonzero;fill:url(#radial1);" d="M 31.753906 56.066406 L 26.460938 56.066406 L 26.460938 58.714844 L 31.753906 58.714844 Z M 31.753906 56.066406 "/>
<path style=" stroke:none;fill-rule:nonzero;fill:url(#radial2);" d="M 31.753906 56.066406 L 26.460938 56.066406 L 26.460938 53.421875 L 31.753906 53.421875 Z M 31.753906 56.066406 "/>
<path style=" stroke:none;fill-rule:nonzero;fill:url(#radial3);" d="M 31.753906 56.066406 L 37.046875 56.066406 L 37.046875 58.714844 L 31.753906 58.714844 Z M 31.753906 56.066406 "/>
<path style=" stroke:none;fill-rule:nonzero;fill:url(#linear0);" d="M 7.429688 28.964844 L 29.882812 6.511719 C 30.914062 5.480469 32.589844 5.480469 33.625 6.511719 L 56.078125 28.964844 C 57.109375 30 57.109375 31.671875 56.078125 32.707031 L 33.625 55.160156 C 32.589844 56.191406 30.914062 56.191406 29.882812 55.160156 L 7.429688 32.707031 C 6.394531 31.671875 6.394531 30 7.429688 28.964844 Z M 7.429688 28.964844 "/>
<path style=" stroke:none;fill-rule:nonzero;fill:url(#linear1);" d="M 34.546875 18.382812 C 33.296875 17.132812 31.429688 16.890625 29.9375 17.652344 L 29.800781 17.515625 C 29.285156 16.996094 28.449219 16.996094 27.929688 17.515625 C 27.414062 18.035156 27.414062 18.867188 27.929688 19.386719 L 28.113281 19.570312 C 27.460938 21.027344 27.730469 22.796875 28.933594 23.996094 C 29.371094 24.433594 29.886719 24.75 30.429688 24.941406 L 30.429688 38.066406 C 29.859375 38.253906 29.324219 38.578125 28.867188 39.03125 C 27.3125 40.585938 27.3125 43.089844 28.867188 44.644531 C 30.421875 46.199219 32.925781 46.199219 34.480469 44.644531 C 36.035156 43.089844 36.035156 40.585938 34.480469 39.03125 C 34.066406 38.621094 33.589844 38.316406 33.078125 38.121094 L 33.078125 24.929688 C 33.171875 24.894531 33.269531 24.859375 33.363281 24.816406 L 38.40625 29.859375 C 37.75 31.320312 38.023438 33.085938 39.222656 34.289062 C 40.78125 35.84375 43.28125 35.84375 44.835938 34.289062 C 46.390625 32.734375 46.390625 30.230469 44.835938 28.675781 C 43.585938 27.421875 41.722656 27.179688 40.230469 27.941406 L 35.28125 22.992188 C 36.042969 21.5 35.796875 19.636719 34.546875 18.382812 Z M 34.546875 18.382812 "/>
<path style=" stroke:none;fill-rule:nonzero;fill:rgb(0%,0%,0%);fill-opacity:0.235294;" d="M 27.605469 18.851562 C 27.464844 19.296875 27.5625 19.796875 27.90625 20.160156 C 27.957031 19.957031 28.027344 19.761719 28.113281 19.570312 L 27.933594 19.386719 C 27.777344 19.230469 27.667969 19.046875 27.605469 18.851562 Z M 35.691406 21.589844 C 35.644531 22.074219 35.507812 22.550781 35.28125 22.992188 L 35.515625 23.226562 C 35.6875 22.699219 35.746094 22.140625 35.691406 21.589844 Z M 27.789062 21.59375 C 27.671875 22.738281 28.054688 23.921875 28.933594 24.800781 C 29.371094 25.238281 29.886719 25.550781 30.429688 25.742188 L 30.429688 24.941406 C 29.886719 24.75 29.371094 24.433594 28.933594 23.996094 C 28.257812 23.324219 27.878906 22.472656 27.789062 21.59375 Z M 33.363281 24.816406 C 33.269531 24.859375 33.171875 24.894531 33.078125 24.929688 L 33.078125 25.734375 C 33.171875 25.699219 33.269531 25.660156 33.363281 25.617188 L 38.195312 30.453125 C 38.25 30.25 38.320312 30.050781 38.40625 29.859375 Z M 45.984375 31.882812 C 45.894531 32.757812 45.511719 33.613281 44.835938 34.289062 C 43.28125 35.84375 40.78125 35.84375 39.222656 34.289062 C 38.550781 33.613281 38.167969 32.761719 38.078125 31.886719 C 37.964844 33.027344 38.34375 34.210938 39.222656 35.089844 C 40.78125 36.644531 43.28125 36.644531 44.835938 35.089844 C 45.71875 34.210938 46.097656 33.027344 45.984375 31.882812 Z M 27.722656 42.238281 C 27.605469 43.382812 27.988281 44.566406 28.867188 45.449219 C 30.421875 47.003906 32.925781 47.003906 34.480469 45.449219 C 35.359375 44.566406 35.742188 43.382812 35.625 42.238281 C 35.535156 43.117188 35.15625 43.96875 34.480469 44.644531 C 32.925781 46.199219 30.421875 46.199219 28.867188 44.644531 C 28.191406 43.96875 27.8125 43.117188 27.722656 42.238281 Z M 27.722656 42.238281 "/>
<path style=" stroke:none;fill-rule:nonzero;fill:rgb(100%,100%,100%);fill-opacity:1;" d="M 28.867188 17.125 C 28.527344 17.125 28.191406 17.253906 27.933594 17.515625 C 27.582031 17.867188 27.46875 18.359375 27.589844 18.804688 C 27.652344 18.59375 27.765625 18.390625 27.933594 18.226562 C 28.449219 17.707031 29.285156 17.707031 29.800781 18.226562 L 29.9375 18.359375 C 31.429688 17.597656 33.296875 17.84375 34.546875 19.09375 C 35.234375 19.78125 35.617188 20.652344 35.695312 21.546875 C 35.796875 20.417969 35.414062 19.253906 34.546875 18.382812 C 33.296875 17.132812 31.429688 16.890625 29.9375 17.652344 L 29.800781 17.515625 C 29.542969 17.253906 29.207031 17.125 28.867188 17.125 Z M 27.925781 20.089844 C 27.789062 20.5625 27.742188 21.054688 27.785156 21.542969 C 27.824219 21.109375 27.933594 20.683594 28.113281 20.277344 L 27.933594 20.097656 C 27.929688 20.09375 27.925781 20.089844 27.925781 20.089844 Z M 35.492188 23.203125 C 35.433594 23.375 35.363281 23.539062 35.28125 23.703125 L 40.230469 28.652344 C 41.722656 27.890625 43.585938 28.132812 44.835938 29.382812 C 45.523438 30.070312 45.90625 30.941406 45.988281 31.835938 C 46.089844 30.707031 45.707031 29.542969 44.835938 28.675781 C 43.585938 27.421875 41.722656 27.179688 40.230469 27.941406 Z M 38.214844 30.378906 C 38.078125 30.855469 38.03125 31.347656 38.074219 31.835938 C 38.113281 31.402344 38.222656 30.972656 38.40625 30.570312 Z M 30.429688 38.066406 C 29.859375 38.253906 29.324219 38.578125 28.867188 39.03125 C 28 39.898438 27.617188 41.0625 27.71875 42.195312 C 27.796875 41.300781 28.179688 40.429688 28.867188 39.742188 C 29.324219 39.285156 29.859375 38.964844 30.429688 38.777344 Z M 33.078125 38.121094 L 33.078125 38.832031 C 33.589844 39.027344 34.066406 39.328125 34.480469 39.742188 C 35.167969 40.429688 35.550781 41.300781 35.628906 42.195312 C 35.730469 41.0625 35.347656 39.898438 34.480469 39.03125 C 34.066406 38.621094 33.589844 38.316406 33.078125 38.121094 Z M 33.078125 38.121094 "/>
<path style=" stroke:none;fill-rule:nonzero;fill:rgb(100%,100%,100%);fill-opacity:0.392157;" d="M 31.753906 5.734375 C 31.078125 5.734375 30.398438 5.992188 29.882812 6.511719 L 7.429688 28.964844 C 6.804688 29.589844 6.558594 30.441406 6.683594 31.246094 C 6.769531 30.710938 7.015625 30.199219 7.429688 29.785156 L 29.882812 7.332031 C 30.917969 6.296875 32.585938 6.296875 33.625 7.332031 L 56.078125 29.785156 C 56.488281 30.199219 56.738281 30.710938 56.820312 31.246094 C 56.949219 30.441406 56.699219 29.589844 56.078125 28.964844 L 33.625 6.511719 C 33.105469 5.992188 32.429688 5.734375 31.753906 5.734375 Z M 31.753906 5.734375 "/>
<path style=" stroke:none;fill-rule:nonzero;fill:rgb(0%,0%,0%);fill-opacity:0.235294;" d="M 31.753906 55.9375 C 31.078125 55.9375 30.398438 55.675781 29.882812 55.15625 L 7.429688 32.707031 C 6.804688 32.082031 6.558594 31.230469 6.683594 30.425781 C 6.769531 30.957031 7.015625 31.472656 7.429688 31.886719 L 29.882812 54.335938 C 30.917969 55.375 32.585938 55.375 33.625 54.335938 L 56.078125 31.886719 C 56.488281 31.472656 56.738281 30.957031 56.820312 30.425781 C 56.949219 31.230469 56.699219 32.082031 56.078125 32.707031 L 33.625 55.15625 C 33.105469 55.675781 32.429688 55.9375 31.753906 55.9375 Z M 31.753906 55.9375 "/>
<path style=" stroke:none;fill-rule:nonzero;fill:rgb(12.941177%,12.941177%,12.941177%);fill-opacity:1;" d="M 7.296875 28.832031 C 6.1875 29.941406 6.1875 31.730469 7.296875 32.839844 L 29.75 55.292969 C 30.855469 56.398438 32.648438 56.398438 33.757812 55.292969 L 56.210938 32.839844 C 57.316406 31.730469 57.316406 29.941406 56.210938 28.832031 L 33.757812 6.378906 C 32.648438 5.273438 30.855469 5.273438 29.75 6.378906 Z M 7.5625 29.097656 L 30.015625 6.644531 C 30.980469 5.679688 32.527344 5.679688 33.492188 6.644531 L 55.945312 29.097656 C 56.910156 30.0625 56.910156 31.609375 55.945312 32.574219 L 33.492188 55.027344 C 32.527344 55.992188 30.980469 55.992188 30.015625 55.027344 L 7.5625 32.574219 C 6.597656 31.609375 6.597656 30.0625 7.5625 29.097656 Z M 7.5625 29.097656 "/>
<path style="fill:none;stroke-width:3;stroke-linecap:round;stroke-linejoin:miter;stroke:rgb(12.941177%,12.941177%,12.941177%);stroke-opacity:1;stroke-miterlimit:4;" d="M 276.34861 -67.951542 C 266.349565 -77.950588 251.413491 -79.887903 239.477131 -73.794734 L 238.383486 -74.88838 C 234.258879 -79.044233 227.572018 -79.044233 223.416165 -74.88838 C 219.291559 -70.732527 219.291559 -64.076912 223.416165 -59.921059 L 224.884775 -58.45245 C 219.666523 -46.797313 221.822567 -32.642414 231.446648 -23.04958 C 234.946314 -19.549915 239.07092 -17.018906 243.414255 -15.487802 L 243.414255 89.502171 C 238.852191 91.002028 234.57135 93.595531 230.915449 97.220184 C 218.479136 109.656497 218.479136 129.685834 230.915449 142.122147 C 243.351761 154.558459 263.381098 154.558459 275.817411 142.122147 C 288.253723 129.685834 288.253723 109.656497 275.817411 97.220184 C 272.505227 93.939248 268.693091 91.501981 264.599732 89.93963 L 264.599732 -15.581544 C 265.34966 -15.862767 266.130836 -16.14399 266.880764 -16.487707 L 307.220662 23.852191 C 301.971163 35.538575 304.158454 49.662226 313.751288 59.286307 C 326.218848 71.722619 346.216938 71.722619 358.65325 59.286307 C 371.089563 46.849995 371.089563 26.820657 358.65325 14.384345 C 348.654205 4.354053 333.749379 2.416738 321.813018 8.509906 L 282.223049 -31.080063 C 288.316217 -43.016424 286.347655 -57.92125 276.34861 -67.951542 Z M 276.34861 -67.951542 " transform="matrix(0.125012,0,0,0.125012,0,26.877566)"/>
</g>
</svg>
